X:38
T:Magnificat
%%stretchlast false
M:3/4
L:1/4
K:F clef=C1
"^vi"[D,F,A,D] "^vi¹"[F,,D,A,D]/ "^vi7¹"[F,,D,A,C]/ "^ii"[G,,D,G,B,] | "^vi"[D,F,A,]2 "^V/vi¹"[_D,E,A,E] | "^vi"[D,A,F] "^iii¹"[C,E,A,E] "^IVmaj7"[B,,F,A,D]/ "^ii¹"[B,,D,G,D]/ | "^III"[A,,E,A,_D]3 | "^I"[F,,F,A,A] "^I¹"[A,,F,CA] "^I"[F,,F,CA] | "^V"[C,E,CG] "^V7"[C,E,B,G] "^vi"[D,F,A,F] | "^ii¹"[B,,D,B,G] "^V"[C,G,E]2 | "^I"[F,,C,A,F]3 | [F,,A,Fc] "^I¹"[A,,F,Fc] "^V7"[C,G,EB] | "^I"[F,A,FA]2 [F,A,CA] | [F,CA] "^V¹"[E,G,CG] "^vi7"[D,A,CF]/ "^♭v°¹"[D,F,=B,F]/ | "^V"[C,G,CE]2 "^V/vi"[A,,A,_DE] | "^vi"[D,A,DF] "^iii¹"[C,A,E] "^IV7"[B,,D,A,D]/ "^ii¹"[B,,D,G,D]/ | "^V/vi"[A,,E,A,_D]2 "^vi¹"[F,,D,A,A] | "^vi²"[A,,D,A,F]2 "^V/vi"[A,,E,_DE]/ "^vi"[A,,E,D]/ | [D,F,A,D]3 |]
